icon-svg/bridges-v1.svg

<svg xmlns="http://www.w3.org/2000/svg" fill="#44739e" viewBox="0 0 24 24"><path d="M16 21c-2.757 0-5-2.243-5-5s2.243-5 5-5 5 2.243 5 5-2.243 5-5 5m-7.389-9.13c-.551 0-1-.447-1-1 0-.552.449-1 1-1 .553 0 1 .448 1 1 0 .553-.447 1-1 1M7 17c-.553 0-1-.447-1-1s.447-1 1-1 1 .447 1 1-.447 1-1 1m5.91-10.467c.553 0 1 .447 1 1s-.447 1-1 1-1-.447-1-1 .447-1 1-1M16 13c1.657 0 3 1.343 3 3s-1.343 3-3 3-3-1.343-3-3 1.343-3 3-3m0-9C9.4 4 4 9.4 4 16s5.4 12 12 12 12-5.4 12-12S22.6 4 16 4"/></svg>

<?xml version="1.0" encoding="UTF-8"?>
<svg width="32px" height="32px" viewBox="0 0 32 32" version="1.1" fill="#44739e" xmlns="http://www.w3.org/2000/svg" xmlns:xlink="http://www.w3.org/1999/xlink">
            <path d="M16,21 C13.243,21 11,18.757 11,16 C11,13.243 13.243,11 16,11 C18.757,11 21,13.243 21,16 C21,18.757 18.757,21 16,21 M8.611,11.87 C8.06,11.87 7.611,11.423 7.611,10.87 C7.611,10.318 8.06,9.87 8.611,9.87 C9.164,9.87 9.611,10.318 9.611,10.87 C9.611,11.423 9.164,11.87 8.611,11.87 M7,17 C6.447,17 6,16.553 6,16 C6,15.447 6.447,15 7,15 C7.553,15 8,15.447 8,16 C8,16.553 7.553,17 7,17 M12.91,6.533 C13.463,6.533 13.91,6.98 13.91,7.533 C13.91,8.086 13.463,8.533 12.91,8.533 C12.357,8.533 11.91,8.086 11.91,7.533 C11.91,6.98 12.357,6.533 12.91,6.533 Z M16,13 C17.657,13 19,14.343 19,16 C19,17.657 17.657,19 16,19 C14.343,19 13,17.657 13,16 C13,14.343 14.343,13 16,13 Z M16,4 C9.4,4 4,9.4 4,16 C4,22.6 9.4,28 16,28 C22.6,28 28,22.6 28,16 C28,9.4 22.6,4 16,4"></path>

</svg>
